X:467
T:Et barn er f\odt i Betlehem
T:Eit barn er f\odt i Betlehem<BR>Puer natus in Betlehem
C:Ludvig Mathias Lindeman
O:Norway
R:Hymn
F:http://abc.musicaviva.com/tunes/lindeman-ludvig-mathias/et-barn-er-fodt/et-barn-er-fodt-01.abc
V:1 Program 1 19 up %Church organ
V:2 Program 1 19 merge up %Church organ
V:3 Program 1 19 bass up %Church organ
V:4 Program 1 19 bass merge down %Church organ
M:C
L:1/4
K:Bb
V:1
F|BFGF|F>EDD|F>EDd|cAFB|G>AFF|c>BAB|d2c2|B3|]
V:2
D|FDEB,|D>CB,B,|D>CB,F|F=EFG|=E2FF|F2FF|F2E2|D3|]
V:3
B,|B,B,B,F,|F,2F,G,|A,2F,B,|CCA,D|B,>CA,A,|A,>B,ED|B,2A,2|F,3|]
V:4
B,,|D,B,,E,D,|A,,2B,,G,,|F,,2B,,B,,|A,,C,D,B,,|C,2F,,F,|E,>D,C,B,,|F,2F,2|B,,3|]
W:
W:
W:  From Musica Viva - http://www.musicaviva.com
W:  the Internet center for free sheet music downloads.

